img/features__04.svg

<svg width="22" height="23" viewBox="0 0 22 23" fill="none" xmlns="http://www.w3.org/2000/svg">
<path d="M10.7355 17.2443C9.94072 17.7348 8.78376 17.4777 8.308 16.7062L4.86754 11.1305C4.38383 10.3466 4.62765 9.31564 5.41094 8.83235L8.42027 6.97437L5.77062 2.6814L2.76309 4.5379C-0.18719 6.35879 -0.0910416 11.127 2.99726 16.133C4.41065 18.4239 6.19009 20.2459 8.00747 21.2637C9.07761 21.8627 10.1323 22.1637 11.1148 22.1634C11.9396 22.1634 12.7137 21.9515 13.4037 21.5255L16.2983 19.74L13.6486 15.4458L10.7355 17.2443ZM12.9317 20.7612C11.3662 21.7275 9.62832 21.1418 8.44645 20.4798C6.76009 19.5357 5.09631 17.8243 3.76189 15.6613C0.951325 11.1051 0.73486 6.84536 3.23514 5.30211L5.47783 3.91755L7.18401 6.68189L4.93889 8.06794C3.73401 8.81147 3.35906 10.3969 4.10281 11.6021L7.54295 17.1775C8.27843 18.3702 9.99055 18.758 11.2067 18.0085L13.3556 16.682L15.0618 19.4466L12.9317 20.7612Z" fill="white"/>
<path d="M13.8323 9.15472C14.4986 10.1776 14.6589 11.4307 14.2717 12.5932L15.1241 12.877C15.5982 11.4535 15.4018 9.91797 14.5855 8.66486C13.7443 7.36956 12.3188 6.54185 10.7719 6.45026L10.7189 7.34708C12.0007 7.42277 13.1356 8.08161 13.8323 9.15472Z" fill="white"/>
<path d="M11.3798 3.47844L11.277 4.3707C13.3639 4.61059 15.2161 5.75557 16.3593 7.51147C17.4663 9.21373 17.7801 11.3098 17.2196 13.263L18.0831 13.5106C18.7152 11.3074 18.3616 8.94214 17.1123 7.02162C15.8225 5.04034 13.7333 3.74886 11.3798 3.47844Z" fill="white"/>
<path d="M19.351 5.56495C17.681 2.99672 14.9828 1.28153 11.9484 0.859619L11.8248 1.74955C14.601 2.13552 17.0699 3.70485 18.598 6.05481C20.0951 8.35474 20.5443 11.1952 19.8304 13.8486L20.6979 14.0818C21.4779 11.1827 20.9869 8.07817 19.351 5.56495Z" fill="white"/>
</svg>

<svg width="22" height="23" fill="none" xmlns="http://www.w3.org/2000/svg"><path d="M10.736 17.244c-.795.49-1.952.234-2.428-.538l-3.44-5.575a1.672 1.672 0 01.543-2.299l3.01-1.858-2.65-4.293-3.008 1.857c-2.95 1.82-2.854 6.589.234 11.595 1.414 2.29 3.193 4.113 5.01 5.13 1.07.6 2.125.9 3.108.9.825 0 1.599-.212 2.289-.637l2.894-1.786-2.65-4.294-2.912 1.798zm2.196 3.517c-1.566.966-3.304.38-4.486-.281-1.686-.944-3.35-2.656-4.684-4.819C.952 11.105.735 6.845 3.235 5.302l2.243-1.384 1.706 2.764-2.245 1.386a2.57 2.57 0 00-.836 3.534l3.44 5.575c.735 1.193 2.448 1.581 3.664.832l2.149-1.327 1.706 2.765-2.13 1.314zm.9-11.606a3.968 3.968 0 01.44 3.438l.852.284a4.862 4.862 0 00-.539-4.212 4.908 4.908 0 00-3.813-2.215l-.053.897a3.953 3.953 0 013.113 1.808z" fill="#fff"/><path d="M11.38 3.478l-.103.893a7.002 7.002 0 015.943 8.892l.863.248A7.9 7.9 0 0011.38 3.478z" fill="#fff"/><path d="M19.351 5.565A10.56 10.56 0 0011.948.86l-.123.89a9.663 9.663 0 016.773 4.305 9.689 9.689 0 011.232 7.794l.868.233c.78-2.9.289-6.004-1.347-8.517z" fill="#fff"/></svg>
